svg/Filled/mail-unread_filled.svg

<svg viewBox="0 0 24 24" xmlns="http://www.w3.org/2000/svg" width="24" height="24"><path d="M14.71 4c.28 0 .41 0 .51.04q.13.07.21.18c.06.09.1.25.15.58a4.5 4.5 0 0 0 1.66 2.75q.32.24.36.33.05.11 0 .22c-.03.08-.13.15-.33.3L12 12.37l-7.44-5.6c-.15-.1-.23-.16-.34-.18a1 1 0 0 0-.3.03 1 1 0 0 0-.25.22l-.24.32c-.14.2-.2.29-.23.4q-.02.16.05.3c.05.11.15.19.35.34l4.49 3.44-3.4 2.5a.9.9 0 1 0 1.07 1.45l3.82-2.81 1.88 1.44a.9.9 0 0 0 1.1 0l1.87-1.44 3.82 2.81.08.05a.9.9 0 0 0 1.07-1.44l-.08-.06-3.4-2.5 3.85-2.96.16-.12.1-.04.23-.02q.76-.04 1.45-.33c.44-.18.66-.27.8-.24q.2.03.31.19c.09.12.1.3.13.65.06.83.07 1.87.07 3.24l-.01 1.85c-.03 1.63-.13 2.62-.54 3.42l-.1.17a5 5 0 0 1-2.08 2.02l-.2.1c-.78.32-1.73.4-3.22.43l-1.85.01h-7.9c-1.49-.03-2.44-.12-3.21-.45l-.2-.1a5 5 0 0 1-2.1-2l-.09-.18C.98 16.2.97 14.8.97 12c0-2.63 0-4.02.45-5.07l.1-.2.05-.09v-.01a5 5 0 0 1 1.96-2l.18-.09c.8-.4 1.79-.5 3.41-.53L8.98 4z"/><path d="M20 1a3 3 0 1 1 0 6 3 3 0 0 1 0-6"/></svg>

<svg viewBox="0 0 24 24" xmlns="http://www.w3.org/2000/svg" width="24" height="24"><path d="M14.71 4C14.99 4 15.12 4 15.22 4.04Q15.35 4.11 15.43 4.22C15.49 4.31 15.53 4.47 15.58 4.8A4.5 4.5 0 0 0 17.24 7.55Q17.56 7.79 17.6 7.88Q17.65 7.99 17.6 8.1C17.57 8.18 17.47 8.25 17.27 8.4L12 12.37L4.56 6.77C4.41 6.67 4.33 6.61 4.22 6.59A1 1 0 0 0 3.92 6.62A1 1 0 0 0 3.67 6.84L3.43 7.16C3.29 7.36 3.23 7.45 3.2 7.56Q3.18 7.72 3.25 7.86C3.3 7.97 3.4 8.05 3.6 8.2L8.09 11.64L4.69 14.14A.9 .9 0 1 0 5.76 15.59L9.58 12.78L11.46 14.22A.9 .9 0 0 0 12.56 14.22L14.43 12.78L18.33 15.64A.9 .9 0 0 0 19.4 14.2L15.92 11.64L19.93 8.56L20.03 8.52L20.26 8.5Q21.02 8.46 21.71 8.17C22.15 7.99 22.37 7.9 22.51 7.93Q22.71 7.96 22.82 8.12C22.91 8.24 22.92 8.42 22.95 8.77C23.01 9.6 23.02 10.64 23.02 12.01L23.01 13.86C22.98 15.49 22.88 16.48 22.47 17.28L22.37 17.45A5 5 0 0 1 20.29 19.47L20.09 19.57C19.31 19.89 18.36 19.97 16.87 20L7.12 20.01C5.63 19.98 4.68 19.89 3.91 19.56L3.71 19.46A5 5 0 0 1 1.61 17.46L1.52 17.28C.98 16.2 .97 14.8 .97 12C.97 9.37 .97 7.98 1.42 6.93L1.57 6.63A5 5 0 0 1 3.53 4.63L3.71 4.54C4.51 4.14 5.5 4.04 7.12 4.01L8.98 4Z"/><path d="M20 1a3 3 0 1 1 0 6 3 3 0 0 1 0-6"/></svg>
